source/img/logo-crypto.svg

<svg width="80" height="63" viewBox="0 0 80 63" fill="none" xmlns="http://www.w3.org/2000/svg">
<path d="M38.7436 13.7143L69 32L50.8462 0L10 18.2857L38.7436 27.4286L69 32H10L38.7436 13.7143Z" fill="#1768AC"/>
<path d="M9.552 55.216C11.64 55.216 13.392 54.664 14.904 53.608C15.456 53.224 15.672 52.792 15.672 52.12C15.672 51.136 15.048 50.344 14.232 50.344C13.728 50.344 13.416 50.536 12.912 50.8C11.736 51.352 10.848 51.736 9.792 51.736C6.96 51.736 5.568 50.056 5.568 46.528C5.568 43.024 6.96 41.344 9.792 41.344C10.848 41.344 11.784 41.608 12.912 42.28C13.368 42.568 13.728 42.736 14.232 42.736C15.048 42.736 15.672 41.944 15.672 40.96C15.672 40.264 15.456 39.856 14.904 39.472C13.392 38.416 11.64 37.864 9.552 37.864C4.416 37.864 1.104 41.224 1.104 46.528C1.104 51.856 4.416 55.216 9.552 55.216ZM25.0016 42.952L24.6656 42.976C23.4896 43.048 22.1216 43.744 21.5696 45.232V44.776C21.5696 43.576 20.7296 42.952 19.6016 42.952C18.5456 42.952 17.5136 43.576 17.5136 44.872V53.176C17.5136 54.568 18.5216 55.144 19.6496 55.144C20.7536 55.144 21.7856 54.568 21.7856 53.176V49.072C21.7856 47.752 22.3376 46.84 24.0176 46.648L24.7376 46.576C26.2976 46.408 26.7776 45.88 26.7776 44.632C26.7776 43.48 26.0816 42.856 25.0016 42.952ZM36.1909 44.152L33.6709 49.672L31.1269 44.152C30.7429 43.312 30.0229 42.952 29.3029 42.952C28.2229 42.952 27.1189 43.744 27.1189 44.8C27.1189 45.04 27.1909 45.304 27.3109 45.568L31.3909 53.728L29.8309 56.872C29.6869 57.16 29.6149 57.448 29.6149 57.712C29.6149 58.744 30.6229 59.488 31.6309 59.488C32.3029 59.488 32.9989 59.152 33.4069 58.312L39.7669 45.568C39.9109 45.28 39.9589 45.016 39.9589 44.776C39.9589 43.744 38.9509 42.976 37.9189 42.976C37.2469 42.976 36.5509 43.312 36.1909 44.152ZM49.1033 42.904C47.5433 42.904 46.1513 43.6 45.4793 44.704C45.3833 43.648 44.5913 42.952 43.3673 42.952C42.0953 42.952 41.2793 43.744 41.2793 44.92V57.52C41.2793 58.648 42.1433 59.44 43.4633 59.44C44.7113 59.44 45.5513 58.72 45.5513 57.592V53.512C46.2473 54.544 47.5913 55.192 49.1033 55.192C52.1753 55.192 54.3113 52.816 54.3113 49.12C54.3113 45.4 52.1512 42.904 49.1033 42.904ZM47.8073 52C46.3193 52 45.4793 50.968 45.4793 49.072C45.4793 47.128 46.3193 46.096 47.7833 46.096C49.2473 46.096 50.0873 47.176 50.0873 49.12C50.0873 50.992 49.2713 52 47.8073 52ZM63.1226 52.096L62.4266 52.048C61.8266 52.024 61.4426 51.544 61.4426 50.944V46.336H62.7626C64.0346 46.336 64.6826 45.808 64.6826 44.752C64.6826 43.72 64.0346 43.192 62.7626 43.192H61.4426V41.632C61.4426 40.408 60.6266 39.64 59.3066 39.64C58.0106 39.64 57.1706 40.408 57.1706 41.632V43.192H56.4746C55.2026 43.192 54.5546 43.72 54.5546 44.752C54.5546 45.808 55.2026 46.336 56.4746 46.336H57.1706V50.584C57.1706 53.296 58.6586 54.856 61.5626 55.072L62.2346 55.12C63.8186 55.216 64.7306 54.664 64.7306 53.536C64.7306 52.624 64.2026 52.168 63.1226 52.096ZM71.8172 55.192C75.7772 55.192 78.3212 52.816 78.3212 49.024C78.3212 45.232 75.7772 42.904 71.8172 42.904C67.8812 42.904 65.3132 45.232 65.3132 49.024C65.3132 52.816 67.8812 55.192 71.8172 55.192ZM71.8172 52C70.3532 52 69.5372 51.088 69.5372 49.024C69.5372 46.96 70.3532 46.048 71.8172 46.048C73.3052 46.048 74.0972 46.96 74.0972 49.024C74.0972 51.088 73.2812 52 71.8172 52Z" fill="white"/>
</svg>

<svg width="80" height="63" fill="none" xmlns="http://www.w3.org/2000/svg"><path d="M38.744 13.714L69 32 50.846 0 10 18.286l28.744 9.143L69 32H10l28.744-18.286z" fill="#1768AC"/><path d="M9.552 55.216c2.088 0 3.84-.552 5.352-1.608.552-.384.768-.816.768-1.488 0-.984-.624-1.776-1.44-1.776-.504 0-.816.192-1.32.456-1.176.552-2.064.936-3.12.936-2.832 0-4.224-1.68-4.224-5.208 0-3.504 1.392-5.184 4.224-5.184 1.056 0 1.992.264 3.12.936.456.288.816.456 1.32.456.816 0 1.44-.792 1.44-1.776 0-.696-.216-1.104-.768-1.488-1.512-1.056-3.264-1.608-5.352-1.608-5.136 0-8.448 3.36-8.448 8.664 0 5.328 3.312 8.688 8.448 8.688zm15.45-12.264l-.336.024c-1.176.072-2.544.768-3.096 2.256v-.456c0-1.2-.84-1.824-1.968-1.824-1.056 0-2.088.624-2.088 1.92v8.304c0 1.392 1.008 1.968 2.136 1.968 1.104 0 2.136-.576 2.136-1.968v-4.104c0-1.32.552-2.232 2.232-2.424l.72-.072c1.56-.168 2.04-.696 2.04-1.944 0-1.152-.696-1.776-1.776-1.68zm11.189 1.2l-2.52 5.52-2.544-5.52c-.384-.84-1.104-1.2-1.824-1.2-1.08 0-2.184.792-2.184 1.848 0 .24.072.504.192.768l4.08 8.16-1.56 3.144a1.899 1.899 0 0 0-.216.84c0 1.032 1.008 1.776 2.016 1.776.672 0 1.368-.336 1.776-1.176l6.36-12.744c.144-.288.192-.552.192-.792 0-1.032-1.008-1.8-2.04-1.8-.672 0-1.368.336-1.728 1.176zm12.912-1.248c-1.56 0-2.952.696-3.624 1.8-.096-1.056-.888-1.752-2.112-1.752-1.272 0-2.088.792-2.088 1.968v12.6c0 1.128.864 1.92 2.184 1.92 1.248 0 2.088-.72 2.088-1.848v-4.08c.696 1.032 2.04 1.68 3.552 1.68 3.072 0 5.208-2.376 5.208-6.072 0-3.72-2.16-6.216-5.208-6.216zM47.807 52c-1.488 0-2.328-1.032-2.328-2.928 0-1.944.84-2.976 2.304-2.976s2.304 1.08 2.304 3.024c0 1.872-.816 2.88-2.28 2.88zm15.316.096l-.696-.048c-.6-.024-.984-.504-.984-1.104v-4.608h1.32c1.272 0 1.92-.528 1.92-1.584 0-1.032-.648-1.56-1.92-1.56h-1.32v-1.56c0-1.224-.816-1.992-2.136-1.992-1.296 0-2.136.768-2.136 1.992v1.56h-.696c-1.272 0-1.92.528-1.92 1.56 0 1.056.648 1.584 1.92 1.584h.696v4.248c0 2.712 1.488 4.272 4.392 4.488l.672.048c1.584.096 2.496-.456 2.496-1.584 0-.912-.528-1.368-1.608-1.44zm8.694 3.096c3.96 0 6.504-2.376 6.504-6.168 0-3.792-2.544-6.12-6.504-6.12-3.936 0-6.504 2.328-6.504 6.12 0 3.792 2.568 6.168 6.504 6.168zm0-3.192c-1.464 0-2.28-.912-2.28-2.976s.816-2.976 2.28-2.976c1.488 0 2.28.912 2.28 2.976S73.281 52 71.817 52z" fill="#fff"/></svg>
